X:230
T: Ballroom Favorite
S: Treoir (as a barn dance)
Z: B.Black
M: 2/4
L: 1/8
R: hornpipe
K: D
F/G/|AF A>A|BG B>B|c/B/c/d/ e/d/c/d/|\
(3e/f/e/ d/B/ A/G/F/G/|
AF A>A| BG B>B|c/B/c/d/ e/d/c/d/|\
(3e/f/e/ d/c/ d :|
z|ab/a/ fd|c/d/e/f/ g2|g/f/g/e/ BA/B/|\
d/e/f/g/ aa|
AF A>A|BG B>B|g/f/g/e/ c/A/ (3B/c/d/|\
(3e/f/e/ d/c/ d :|
